!!!OTL: Martinsgans
!!!ARE: Europa, Mitteleuropa, Deutschland
!!!SCT: A0351
!!!YEM: Copyright 1995, estate of Helmut Schaffrath.
**kern
*ICvox
*Ivox
*M4/2
*k[b-]
*F:
{1ff
=1
1ee
2ff
2dd
=2
1cc
2r
2cc
=3
2a
2b-
1cc
=4
2r}
{2cc
2dd
2dd
=5
2.cc
4b-
2a
2g
=6
2a
2b-
1g
=7
1f}
{1ff
=8
1ee
2ff
2dd
=9
1cc
2r
2cc
=10
2a
2b-
1cc
=11
2r}
{2cc
2dd
2dd
=12
2.cc
4b-
2a
2g
=13
2a
2b-
1g
=14
1f
2r}
{2f
=15
2.a
4b-
2cc
2f
=16
2.a
4b-
2cc
2cc
=17
2dd
2ee
2.ff
4ee
=18
2dd
2cc
1dd
=19
1cc
2r}
{2cc
=20
2cc
2cc
2a
2f
=21
2cc
2dd
1b-
=22
1a
2r
2a
=23
2dd
2dd
2.cc
4b-
=24
2a
2b-
1g
=25
1f}
==
!!!AGN: Romanze, Ballade, Lied
!! Joh. Ott 1544 No. 13.
!!!ONB: ESAC (Essen Associative Code) Database: ALTDEU
!!!AMT: simple quadruple
!!!AIN: vox
!!!EED: Helmut Schaffrath
!!!EEV: 1.0
*-
